src/components/getStarted/register.svg

<?xml version="1.0" encoding="UTF-8"?>
<svg width="138px" height="160px" viewBox="0 0 138 160" version="1.1" xmlns="http://www.w3.org/2000/svg" xmlns:xlink="http://www.w3.org/1999/xlink">
    <!-- Generator: Sketch 50.2 (55047) - http://www.bohemiancoding.com/sketch -->
    <title>Group 5</title>
    <desc>Created with Sketch.</desc>
    <defs>
        <linearGradient x1="0%" y1="-41.1898226%" x2="100%" y2="129.708615%" id="linearGradient-1">
            <stop stop-color="#52E5FF" offset="0%"></stop>
            <stop stop-color="#5041FF" offset="100%"></stop>
        </linearGradient>
        <linearGradient x1="50%" y1="-1090.88542%" x2="50%" y2="1290.88542%" id="linearGradient-2">
            <stop stop-color="#52E5FF" offset="0%"></stop>
            <stop stop-color="#5041FF" offset="100%"></stop>
        </linearGradient>
        <linearGradient x1="30.9119051%" y1="-15.9725041%" x2="75.1826505%" y2="105.331778%" id="linearGradient-3">
            <stop stop-color="#52E3FF" offset="0%"></stop>
            <stop stop-color="#5144FF" offset="100%"></stop>
        </linearGradient>
    </defs>
    <g id="Page-1" stroke="none" stroke-width="1" fill="none" fill-rule="evenodd">
        <g id="Color-Variation" transform="translate(-539.000000, -2657.000000)">
            <g id="Get-Started-group" transform="translate(294.000000, 2557.000000)">
                <g id="Icons" transform="translate(0.000000, 93.000000)">
                    <g id="ICONS-V1" transform="translate(247.000000, 10.000000)">
                        <g id="Group-5">
                            <g id="Icon" transform="translate(37.000000, 43.000000)">
                                <path d="M52.7103975,65.596793 L52.7103975,70.7206997 L3.28960251,70.7206997 L3.28960251,3.19300292 L52.7103975,3.19300292 L52.7103975,41.0559767 L56,37.8198251 L56,1.6180758 C56,0.724897959 55.263129,0 54.3551987,0 L1.60093989,0 C0.709457607,0.0237317784 0,0.741078717 0,1.6180758 L0,72.3819242 C0,73.275102 0.736870961,74 1.64480125,74 L54.3551987,74 C55.263129,74 56,73.275102 56,72.3819242 L56,62.3606414 L52.7103975,65.596793 Z" id="Fill-1" fill="url(#linearGradient-1)"></path>
                                <path d="M45.7085345,54.0866024 L45.4024957,58.6983105 L50.1351671,58.4000938 L77.0447217,32.1676758 L72.6727389,27.9074374 L45.7085345,54.0866024 Z M43.6427726,61.9999952 C42.7377721,62.0021254 42.002186,61.2885354 42,60.405601 C42,60.369389 42.001093,60.3321119 42.003279,60.2958999 L42.4623372,53.2771571 C42.4798251,52.8756296 42.6514254,52.4954034 42.9432553,52.2120975 L71.4595136,24.4672949 C72.1000091,23.844235 73.1361691,23.844235 73.7766645,24.4672949 L80.5204481,31.0387126 C81.1598506,31.6628376 81.1598506,32.6725141 80.5204481,33.296639 L52.0151198,61.084044 C51.7243829,61.3684149 51.3341834,61.5356293 50.9221241,61.5526702 L43.7192823,61.9999952 L43.6427726,61.9999952 Z" id="Fill-3" fill="url(#linearGradient-1)"></path>
                                <path d="M45.4423077,19 L21.5576923,19 C20.6978462,19 20,18.328 20,17.5 C20,16.672 20.6978462,16 21.5576923,16 L45.4423077,16 C46.3021538,16 47,16.672 47,17.5 C47,18.328 46.3021538,19 45.4423077,19" id="Fill-5" fill="url(#linearGradient-2)"></path>
                                <path d="M45.4423077,34 L21.5576923,34 C20.6978462,34 20,33.328 20,32.5 C20,31.672 20.6978462,31 21.5576923,31 L45.4423077,31 C46.3021538,31 47,31.672 47,32.5 C47,33.328 46.3021538,34 45.4423077,34" id="Fill-7" fill="url(#linearGradient-2)"></path>
                                <path d="M36.3125,50 L21.6875,50 C20.756,50 20,49.328 20,48.5 C20,47.672 20.756,47 21.6875,47 L36.3125,47 C37.244,47 38,47.672 38,48.5 C38,49.328 37.244,50 36.3125,50" id="Fill-9" fill="url(#linearGradient-2)"></path>
                                <path d="M12.354591,19 C11.954556,18.9835106 11.575743,18.8217087 11.2934902,18.5465423 L8.33301893,15.6712081 C7.79504082,14.9961744 7.92237292,14.0253626 8.61739394,13.5028556 C9.17765516,13.0813461 9.95756425,13.0710402 10.5294976,13.4760604 L12.354591,15.2692796 L16.323108,11.4148889 C16.966135,10.832608 17.9731197,10.8676479 18.5726417,11.4921829 C19.1424528,12.0858003 19.1424528,13.0061133 18.5726417,13.5997307 L13.4899688,18.5362364 C13.1907384,18.8330451 12.7822146,19 12.354591,19" id="Fill-11" fill="url(#linearGradient-1)"></path>
                                <path d="M12.354591,34 C11.954556,33.9835106 11.575743,33.8217087 11.2934902,33.5465423 L8.33301893,30.6712081 C7.79504082,29.9961744 7.92237292,29.0253626 8.61739394,28.5028556 C9.17765516,28.0813461 9.95756425,28.0710402 10.5294976,28.4760604 L12.354591,30.2692796 L16.323108,26.4148889 C16.966135,25.832608 17.9731197,25.8676479 18.5726417,26.4921829 C19.1424528,27.0858003 19.1424528,28.0061133 18.5726417,28.5997307 L13.4899688,33.5362364 C13.1907384,33.8330451 12.7822146,34 12.354591,34" id="Fill-13" fill="url(#linearGradient-1)"></path>
                                <path d="M12.354591,50 C11.954556,49.9835106 11.575743,49.8217087 11.2934902,49.5465423 L8.33301893,46.6712081 C7.79504082,45.9961744 7.92237292,45.0253626 8.61739394,44.5028556 C9.17765516,44.0813461 9.95756425,44.0710402 10.5294976,44.4760604 L12.354591,46.2692796 L16.323108,42.4148889 C16.966135,41.832608 17.9731197,41.8676479 18.5726417,42.4921829 C19.1424528,43.0858003 19.1424528,44.0061133 18.5726417,44.5997307 L13.4899688,49.5362364 C13.1907384,49.8330451 12.7822146,50 12.354591,50" id="Fill-15" fill="url(#linearGradient-1)"></path>
                            </g>
                            <polygon id="Polygon-7" stroke="url(#linearGradient-3)" stroke-width="4" points="66.6839561 0 133.367912 38.5 133.367912 115.5 66.6839561 154 2.98427949e-13 115.5 2.55795385e-13 38.5"></polygon>
                        </g>
                    </g>
                </g>
            </g>
        </g>
    </g>
</svg>

<svg width="138" height="160" xmlns="http://www.w3.org/2000/svg"><defs><linearGradient x1="0%" y1="-41.19%" y2="129.709%" id="a"><stop stop-color="#52E5FF" offset="0%"/><stop stop-color="#5041FF" offset="100%"/></linearGradient><linearGradient x1="50%" y1="-1090.885%" x2="50%" y2="1290.885%" id="b"><stop stop-color="#52E5FF" offset="0%"/><stop stop-color="#5041FF" offset="100%"/></linearGradient><linearGradient x1="30.912%" y1="-15.973%" x2="75.183%" y2="105.332%" id="c"><stop stop-color="#52E3FF" offset="0%"/><stop stop-color="#5144FF" offset="100%"/></linearGradient></defs><g fill="none" fill-rule="evenodd"><path d="M52.71 65.597v5.124H3.29V3.193h49.42v37.863L56 37.82V1.618C56 .725 55.263 0 54.355 0H1.601C.709.024 0 .741 0 1.618v70.764C0 73.275.737 74 1.645 74h52.71c.908 0 1.645-.725 1.645-1.618V62.36l-3.29 3.236z" fill="url(#a)" transform="translate(39 46)"/><path d="M45.709 54.087l-.307 4.611 4.733-.298 26.91-26.232-4.372-4.26-26.964 26.179zM43.643 62c-.905.002-1.64-.711-1.643-1.594 0-.037.001-.074.003-.11l.46-7.019a1.58 1.58 0 0 1 .48-1.065L71.46 24.467a1.67 1.67 0 0 1 2.317 0l6.743 6.572c.64.624.64 1.634 0 2.258L52.015 61.084c-.29.284-.68.452-1.093.469L43.72 62h-.076z" fill="url(#a)" transform="translate(39 46)"/><path d="M45.442 19H21.558c-.86 0-1.558-.672-1.558-1.5s.698-1.5 1.558-1.5h23.884c.86 0 1.558.672 1.558 1.5s-.698 1.5-1.558 1.5M45.442 34H21.558c-.86 0-1.558-.672-1.558-1.5s.698-1.5 1.558-1.5h23.884c.86 0 1.558.672 1.558 1.5s-.698 1.5-1.558 1.5M36.313 50H21.687C20.756 50 20 49.328 20 48.5s.756-1.5 1.688-1.5h14.625c.931 0 1.687.672 1.687 1.5s-.756 1.5-1.688 1.5" fill="url(#b)" transform="translate(39 46)"/><path d="M12.355 19a1.615 1.615 0 0 1-1.062-.453l-2.96-2.876a1.516 1.516 0 0 1 .284-2.168 1.63 1.63 0 0 1 1.912-.027l1.826 1.793 3.968-3.854a1.625 1.625 0 0 1 2.25.077c.57.594.57 1.514 0 2.108l-5.083 4.936c-.3.297-.708.464-1.135.464M12.355 34a1.615 1.615 0 0 1-1.062-.453l-2.96-2.876a1.516 1.516 0 0 1 .284-2.168 1.63 1.63 0 0 1 1.912-.027l1.826 1.793 3.968-3.854a1.625 1.625 0 0 1 2.25.077c.57.594.57 1.514 0 2.108l-5.083 4.936c-.3.297-.708.464-1.135.464M12.355 50a1.615 1.615 0 0 1-1.062-.453l-2.96-2.876a1.516 1.516 0 0 1 .284-2.168 1.63 1.63 0 0 1 1.912-.027l1.826 1.793 3.968-3.854a1.625 1.625 0 0 1 2.25.077c.57.594.57 1.514 0 2.108l-5.083 4.936c-.3.297-.708.464-1.135.464" fill="url(#a)" transform="translate(39 46)"/><path stroke="url(#c)" stroke-width="4" d="M66.684 0l66.684 38.5v77L66.684 154 0 115.5v-77z" transform="translate(2 3)"/></g></svg>
